src/actions/24/mail-mark-unread-new.svg

<svg width="24" height="24" version="1.1" viewBox="0 0 24 24" xmlns="http://www.w3.org/2000/svg">
 <defs>
  <style id="current-color-scheme" type="text/css">.ColorScheme-Text {
        color:#363636;
      }</style>
 </defs>
 <path class="ColorScheme-Text" d="m17.5 12a3.5 3.5 0 0 0-3.5 3.5 3.5 3.5 0 0 0 3.5 3.5 3.5 3.5 0 0 0 3.5-3.5 3.5 3.5 0 0 0-3.5-3.5zm0 0.5 0.57422 1.6133 1.5469-0.73437-0.73438 1.5469 1.6133 0.57422-1.6133 0.57422 0.73438 1.5469-1.5469-0.73438-0.57422 1.6133-0.57422-1.6133-1.5469 0.73438 0.73438-1.5469-1.6133-0.57422 1.6133-0.57422-0.73438-1.5469 1.5469 0.73437z" fill="currentColor"/>
 <path class="ColorScheme-Text" d="m6 5c-1.662 0-3 1.338-3 3v8c0 1.662 1.338 3 3 3h7v-1h-7c-1.0692 0-1.9288-0.83294-1.9883-1.8867l4.5977-3.498 0.7207 0.54883c0.98774 0.7512 2.4021 0.98417 3.6699 0.72266v-0.90234c-0.95179 0.29872-2.0835 0.15256-2.8594-0.4375l-6.1289-4.6602c0.059506-1.0538 0.9191-1.8867 1.9883-1.8867h12c1.0692 0 1.9288 0.83294 1.9883 1.8867l-4.0938 3.1133h1.623l2.4824-1.8887v1.8887h1v-3c0-1.662-1.338-3-3-3h-12zm-2 4.1094 3.8008 2.8906-3.8008 2.8887z" fill="currentColor"/>
</svg>

<svg xmlns="http://www.w3.org/2000/svg" width="24" height="24">
    <defs>
        <style id="current-color-scheme" type="text/css">
            .ColorScheme-Text{color:#050505;opacity:.7}
        </style>
    </defs>
    <path fill="currentColor" d="M17.5 12a3.5 3.5 0 0 0-3.5 3.5 3.5 3.5 0 0 0 3.5 3.5 3.5 3.5 0 0 0 3.5-3.5 3.5 3.5 0 0 0-3.5-3.5zm0 .5.574 1.613 1.547-.734-.734 1.547 1.613.574-1.613.574.734 1.547-1.547-.734L17.5 18.5l-.574-1.613-1.547.734.734-1.547L14.5 15.5l1.613-.574-.734-1.547 1.547.734z" class="ColorScheme-Text"/>
    <path fill="currentColor" d="M6 5C4.338 5 3 6.338 3 8v8c0 1.662 1.338 3 3 3h7v-1H6a1.99 1.99 0 0 1-1.988-1.887l4.597-3.498.721.55c.988.75 2.402.983 3.67.722v-.903c-.952.3-2.083.153-2.86-.437l-6.128-4.66A1.99 1.99 0 0 1 6 6h12a1.99 1.99 0 0 1 1.988 1.887L15.895 11h1.623L20 9.111V11h1V8c0-1.662-1.338-3-3-3H6zM4 9.11 7.8 12 4 14.889z" class="ColorScheme-Text"/>
</svg>
